X:174
T: Die Mordeltern
N: Q0085P
O: Mitteleuropa, Deutschland (DDR) , Brandenburg
R: Ballade, Habgier, Mord, Reue, Selbstmord
M: 4/4
L: 1/8
K: D
F2 | A2A2B2A2 | G2F2E2
F2 | G2E2A2AG | F2E2D2
D2 | F2D2A2F2 | F4E2
B2 | A3GF2E2 | E4D2

@@@ Tune index: 1229
